X:1
T:O bone Jesu
T:Marco Antonio Ingegneri attributed to Giovanni Pierluigi da Palestrina
T:O bone Jesu
C:Marco Antonio Ingegneri
C:attributed to
C:Giovanni Pierluigi da Palestrina
%%score { ( 1 2 ) | ( 3 4 ) }
L:1/8
Q:1/4=80
M:4/4
K:Bb
V:1 treble nm="P1"
V:2 treble 
V:3 bass 
V:4 bass 
V:1
!p!"^Andante sostenuto"!<(! A8!<)! | B4 A4 |"^-"!>(! G8 | [CF]8!>)! | z4!p!!<(! d4- | d4!<)! c4 | %6
w: O|bo- ne|Je-|su!|mi-|* se-|
w: ||||||
 B4 A4 |"^-" G8 |!pp!!pp! ^F8 | z4!p!!<(! G4- | G4!<)! G4 | A4!mf! A4 | B4 B4 |!p!!p!!>(! A8!>)! | %14
w: re- re|no-|bis:|qui-|* a|tu cre-|a- sti|nos,|
w: ||||||||
 G8 |!<(! A4!<)!!mf! A4 | B6"^-" B2 | [FA]8 |!f! d6 d2 | d4 d4 | c4 B4 |"^rit." A2 G2"^-" (G4- | %22
w: |re- de-|mi- sti|nos|san- gui-|ne tu-|o pre-|* ti- o-|
w: tu||||||* pre-|ti- o- sis-|
"^-""^rit."!>(! G2 ^F=E"^-""^-" F2)!>)!!pp! F2 | !fermata!G8 |] %24
w: sis- * * * si-|mo.|
w: * * * * si-|mo.|
V:2
 D8 | D4 D4 | (E6 D2) | x8 | x4 F4- | F4 F4 | D4 D4- | D2!>(! (CB,!>)! C4) | D8 | x4 D4- | D4 =E4 | %11
 F4 F4 | (B,3 C D2) =E2 | F6 (F2- | F2 =ED E4) | F4 F4 | (B,3 C D2) =E2 | x8 | F6 F2 | F4 F4 | %20
 F4 F4- | F2 _E2 E4 | D6 D2 | D8 |] %24
V:3
!p!!<(! ^F,8!<)! | G,4 A,4 |!>(! B,2 C4"^-""^-" B,2-!>)! |"^-" B,2"^-" A,G, A,4 |!p! z4!<(! B,4- | %5
w: |||||
w: |||||
w: |||||
w: ||Je- * *|* * * su!||
w: ||Je- * *|su! * * *||
 B,4!<)! A,4- | A,2 G,4 F,2 |!>(! G,8!>)! |!pp! A,8 | z4!p!!<(! =B,4- | B,4!<)! C4 | C4!mf! D4 | %12
w: |||||||
w: |||||||
w: |||||||
w: |||||||
w: |||||||
 D4 B,4 |!p!!>(! C8!>)! | z4!p! C4 |!<(! C4!<)!!mf! D4 | D4 B,4 | [F,C]8 |!f! B,6 B,2 | B,4 B,4 | %20
w: ||||||||
w: ||||||||
w: ||||||||
w: ||||||||
w: ||||||||
 A,4 D4 | C6"^-" B,2 |!>(! A,3 G,"^-" A,2!>)!!pp! A,2 | [G,=B,]8 |] %24
w: ||||
w: ||||
w: ||||
w: * pre-|ti- o-|sis- * * si-|mo.|
w: ||||
V:4
 D,8 | G,4 =F,4 | E,8 | F,8 | x4 B,,4- | B,,4 F,4 | G,4 D,4 | E,8 | D,8 | x4 G,4- | G,4 C,4 | %11
 F,4 D,4 | G,4 G,4 | F,8 | C,8 | F,4 D,4 | G,6 G,2 | x8 | B,,6 B,,2 | B,,4 B,,4 | F,4 B,,4 | %21
 C,6 C,2 | D,6 D,2 | !fermata!G,,8 |] %24

